poi/svg/2412.svg

<?xml version="1.0" encoding="UTF-8" standalone="no"?>
<svg
   xmlns:dc="http://purl.org/dc/elements/1.1/"
   xmlns:cc="http://creativecommons.org/ns#"
   xmlns:rdf="http://www.w3.org/1999/02/22-rdf-syntax-ns#"
   xmlns:svg="http://www.w3.org/2000/svg"
   xmlns="http://www.w3.org/2000/svg"
   xmlns:sodipodi="http://sodipodi.sourceforge.net/DTD/sodipodi-0.dtd"
   xmlns:inkscape="http://www.inkscape.org/namespaces/inkscape"
   inkscape:version="1.0 (4035a4fb49, 2020-05-01)"
   sodipodi:docname="2412.svg"
   id="svg20"
   version="1.2"
   viewBox="0 0 42.519639 42.519639"
   height="14.999999mm"
   width="14.999999mm">
  <metadata
     id="metadata24">
    <rdf:RDF>
      <cc:Work
         rdf:about="">
        <dc:format>image/svg+xml</dc:format>
        <dc:type
           rdf:resource="http://purl.org/dc/dcmitype/StillImage" />
        <dc:title>Qt SVG Document</dc:title>
      </cc:Work>
    </rdf:RDF>
  </metadata>
  <sodipodi:namedview
     inkscape:current-layer="svg20"
     inkscape:window-maximized="0"
     inkscape:window-y="0"
     inkscape:window-x="0"
     inkscape:cy="28.346482"
     inkscape:cx="28.346482"
     inkscape:zoom="5.8410537"
     showgrid="false"
     id="namedview22"
     inkscape:window-height="480"
     inkscape:window-width="1034"
     inkscape:pageshadow="2"
     inkscape:pageopacity="0"
     guidetolerance="10"
     gridtolerance="10"
     objecttolerance="10"
     borderopacity="1"
     bordercolor="#666666"
     pagecolor="#ffffff" />
  <title
     id="title2">Qt SVG Document</title>
  <desc
     id="desc4">Generated with Qt</desc>
  <defs
     id="defs6" />
  <g
     transform="translate(5.25984,5.25984)"
     id="g18"
     stroke-linejoin="bevel"
     stroke-linecap="square"
     fill-rule="evenodd"
     stroke-width="1"
     stroke="#000000"
     fill="none">
    <g
       id="g10"
       font-style="normal"
       font-weight="400"
       font-size="7.8px"
       font-family="'MS Shell Dlg 2'"
       stroke="none"
       fill-opacity="1"
       fill="#ec1d24">
      <path
         id="path8"
         d="M 37.2598,16 C 37.2598,27.7415 27.7415,37.2598 16,37.2598 4.25851,37.2598 -5.25984,27.7415 -5.25984,16 -5.25984,4.25851 4.25851,-5.25984 16,-5.25984 27.7415,-5.25984 37.2598,4.25851 37.2598,16"
         fill-rule="evenodd"
         vector-effect="non-scaling-stroke" />
    </g>
    <g
       id="g14"
       font-style="normal"
       font-weight="400"
       font-size="7.8px"
       font-family="'MS Shell Dlg 2'"
       transform="translate(16,13.1654)"
       stroke="none"
       fill-opacity="0.94902"
       fill="#ffffff">
      <path
         id="path12"
         d="m 11.623,-1.26514 c -0.3779,0.335941 -0.6228,0.598392 -0.7348,0.787357 -0.112,0.188965 -0.196,0.4584145 -0.252,0.808349 -0.056,0.447917 -0.056,0.895834 0,1.343754 0.056,0.44791 0.112,0.91683 0.168,1.40673 0.14,0.65788 0.238,1.34375 0.2939,2.05762 0.056,0.71387 0.014,1.44173 -0.1259,2.1836 -0.252,1.46972 -0.8539,2.73303 -1.8057,3.78983 -0.95182,1.0568 -2.31657,1.9211 -4.09423,2.593 -0.5739,0.2519 -1.21778,0.5844 -1.93164,0.9973 -0.71387,0.4129 -1.25977,0.8363 -1.6377,1.2703 -0.16797,0.1679 -0.36043,0.3184 -0.577393,0.4514 -0.21696,0.1329 -0.437419,0.1994 -0.661377,0.1994 -0.251953,0 -0.486409,-0.0665 -0.703369,-0.1994 -0.21696,-0.133 -0.409424,-0.2835 -0.577391,-0.4514 -0.37793,-0.434 -0.92383,-0.8574 -1.6377,-1.2703 -0.71386,-0.4129 -1.35774,-0.7454 -1.93164,-0.9973 -3.41536,-1.3298 -5.382,-3.4574 -5.89986,-6.38283 -0.14,-0.74187 -0.182,-1.46973 -0.126,-2.1836 0.056,-0.71387 0.154,-1.39974 0.2939,-2.05762 0.056,-0.4899 0.1155,-0.95882 0.1785,-1.40673 0.063,-0.44792 0.0595,-0.895837 -0.0105,-1.343754 0,-0.3499345 -0.07,-0.612386 -0.21,-0.787353 -0.1399,-0.174968 -0.3709,-0.416423 -0.6928,-0.724363 -0.224,-0.22396 -0.378,-0.47941 -0.4619,-0.76636 -0.084,-0.28695 -0.098,-0.56339 -0.042,-0.82935 0.1399,-0.46191 0.2764,-0.89233 0.4094,-1.29126 0.133,-0.39892 0.3114,-0.80135 0.5354,-1.20727 0.2799,-0.5179 0.74884,-0.77686 1.40672,-0.77686 h 0.48291 c 0.34994,0.15398 0.71737,0.25196 1.1023,0.29395 0.38493,0.04199 0.78035,0.06299 1.18628,0.06299 1.0778,0 2.1346,-0.17847 3.17041,-0.5354 1.0358,-0.35694 1.84065,-0.85034 2.414547,-1.48023 0.279948,-0.29394 0.650879,-0.44092 1.112793,-0.44092 0.405925,0 0.79085,0.14698 1.15479,0.44092 0.57389,0.62989 1.36474,1.12329 2.37255,1.48023 1.00782,0.35693 2.05062,0.5354 3.12842,0.5354 0.40593,0 0.80135,-0.021 1.18628,-0.06299 0.38493,-0.04199 0.75236,-0.13997 1.1023,-0.29395 h 0.48291 c 0.65789,0 1.11279,0.25896 1.36479,0.77686 0.2239,0.40592 0.4234,0.80835 0.5983,1.20727 0.175,0.39893 0.3045,0.82935 0.3885,1.29126 0.056,0.26596 0.042,0.5424 -0.042,0.82935 -0.084,0.28695 -0.21,0.5144 -0.378,0.68237 M 9.46045,0.225586 C 9.51644,-0.33431 9.66691,-0.76473 9.91187,-1.06567 c 0.24493,-0.30095 0.54243,-0.64038 0.89233,-1.01831 0.14,-0.13998 0.168,-0.28695 0.084,-0.44092 -0.168,-0.76986 -0.4269,-1.49772 -0.7769,-2.1836 -0.084,-0.16796 -0.22393,-0.25195 -0.41989,-0.25195 l -0.14698,0.08399 c -0.41992,0.13997 -0.83984,0.23095 -1.25976,0.27294 -0.41992,0.042 -0.87484,0.06299 -1.36475,0.06299 -1.20377,0 -2.38305,-0.22046 -3.53784,-0.66137 C 2.22729,-5.64282 1.28597,-6.22721 0.558105,-6.95508 0.502116,-7.01107 0.404134,-7.03906 0.26416,-7.03906 c -0.1679686,0 -0.2799478,0.02799 -0.3359373,0.08398 -0.7278647,0.72787 -1.6691927,1.31226 -2.8239727,1.75318 -1.15479,0.44091 -2.33407,0.66137 -3.53784,0.66137 -0.43392,0 -0.87484,-0.02099 -1.32276,-0.06299 -0.44791,-0.04199 -0.86784,-0.13297 -1.25976,-0.27294 -0.05599,0 -0.09799,-0.014 -0.12598,-0.042 -0.04199,0 -0.06299,-0.01399 -0.06299,-0.04199 -0.19596,0 -0.33594,0.08399 -0.41992,0.25195 -0.34993,0.68588 -0.6089,1.41374 -0.7769,2.1836 -0.0839,0.15397 -0.0559,0.30094 0.084,0.44092 0.40595,0.37793 0.7104,0.71736 0.91336,1.01831 0.20296,0.30094 0.33244,0.73136 0.38843,1.291256 0.05599,0.489909 0.04899,0.993814 -0.021,1.511714 -0.06999,0.51791 -0.15397,1.02181 -0.25195,1.51172 -0.08399,0.62989 -0.15397,1.26677 -0.20996,1.91065 -0.05599,0.64388 -0.014,1.26676 0.12597,1.86865 0.23796,1.34375 0.76986,2.46004 1.59571,3.34888 0.82584,0.8888 2.01562,1.6622 3.56933,2.3201 0.16797,0.07 0.42342,0.1819 0.76636,0.3359 0.34294,0.154 0.71737,0.3394 1.12329,0.5564 0.40593,0.217 0.80135,0.4689 1.18628,0.7559 0.384928,0.2869 0.710368,0.5983 0.976318,0.9343 0.1119794,0.112 0.2519534,0.168 0.419922,0.168 0.139974,0 0.265951,-0.056 0.37793,-0.168 0.26595,-0.336 0.59139,-0.6474 0.97632,-0.9343 0.38493,-0.287 0.78035,-0.5389 1.18628,-0.7559 0.40592,-0.217 0.78035,-0.4024 1.12329,-0.5564 0.34293,-0.154 0.59839,-0.2659 0.76636,-0.3359 C 6.24805,12.0394 7.43783,11.266 8.26367,10.3772 9.08952,9.48836 9.64941,8.37207 9.94336,7.02832 10.0273,6.42643 10.0413,5.81055 9.98535,5.18066 9.92936,4.55078 9.85938,3.9069 9.77539,3.24902 9.64941,2.70313 9.55143,2.18522 9.48145,1.69531 9.41146,1.2054 9.40446,0.715495 9.46045,0.225586 M 6.91992,-3.93164 c 0.48991,0 0.95882,-0.03499 1.40674,-0.10498 0.44792,-0.06999 0.90283,-0.15397 1.36475,-0.25195 0.13997,0.32194 0.26595,0.64038 0.37789,0.95532 0.112,0.31494 0.21,0.64738 0.294,0.99731 -0.336,0.27995 -0.6474,0.59839 -0.93434,0.95532 C 9.14201,-1.02368 8.95654,-0.516276 8.87256,0.141602 8.81657,0.6875 8.82357,1.2334 8.89355,1.7793 8.96354,2.3252 9.04053,2.8431 9.12451,3.33301 9.2085,3.99089 9.27848,4.61377 9.33447,5.20166 9.39046,5.78955 9.37646,6.37044 9.29248,6.94434 9.06852,8.14811 8.56812,9.16642 7.79126,9.99927 7.0144,10.8321 5.89811,11.5355 4.44238,12.1094 4.26042,12.1654 3.99797,12.2703 3.65503,12.4243 3.31209,12.5783 2.93416,12.7708 2.52124,13.0017 2.10832,13.2327 1.70239,13.4916 1.30347,13.7786 0.904541,14.0655 0.558105,14.384 0.26416,14.7339 -0.0437826,14.384 -0.400716,14.0655 -0.806641,13.7786 -1.21257,13.4916 -1.62199,13.2327 -2.03491,13.0017 -2.44784,12.7708 -2.82576,12.5783 -3.1687,12.4243 -3.51164,12.2703 -3.77409,12.1654 -3.95605,12.1094 -5.41178,11.5355 -6.51408,10.8321 -7.26294,9.99927 -8.0118,9.16642 -8.49821,8.14811 -8.72217,6.94434 -8.86214,6.37044 -8.90413,5.78255 -8.84814,5.18066 -8.79215,4.57878 -8.72217,3.96289 -8.63818,3.33301 -8.5542,2.8431 -8.47721,2.3252 -8.40723,1.7793 -8.33724,1.2334 -8.33024,0.6875 -8.38623,0.141602 -8.44222,-0.516276 -8.60669,-1.03068 -8.87964,-1.40161 -9.15259,-1.77254 -9.48503,-2.14697 -9.87695,-2.5249 c 0.08398,-0.25196 0.18896,-0.5284 0.31494,-0.82935 0.12597,-0.30094 0.27995,-0.61238 0.46191,-0.93432 0.39193,0.09798 0.81185,0.18196 1.25977,0.25195 0.44791,0.06999 0.91683,0.10498 1.40674,0.10498 1.28776,0 2.54052,-0.22396 3.7583,-0.67188 1.21777,-0.44791 2.197588,-1.0428 2.93945,-1.78466 0.74186,0.74186 1.71468,1.33675 2.91846,1.78466 1.20377,0.44792 2.44954,0.67188 3.7373,0.67188 M 4.3584,10.8496 C 4.9043,10.3037 5.31722,9.68083 5.59717,8.98096 5.87712,8.28109 5.9891,7.57422 5.93311,6.86035 5.93311,6.53841 5.89811,6.10799 5.82813,5.56909 5.75814,5.03019 5.50618,4.34082 5.07227,3.50098 4.93229,3.33301 4.81331,3.16154 4.71533,2.98657 4.61735,2.8116 4.52637,2.65413 4.44238,2.51416 4.20443,2.16423 4.00146,1.82479 3.8335,1.49585 3.66553,1.16691 3.58154,0.778483 3.58154,0.330566 3.58154,0.260579 3.57454,0.183594 3.56055,0.0996094 3.54655,0.015625 3.47656,-0.0263672 3.35059,-0.0263672 3.18262,-0.0263672 3.05664,0.1521 2.97266,0.509033 2.88867,0.865967 2.81868,1.16341 2.7627,1.40137 c 0,0.22396 0,0.45141 0,0.68237 0,0.23096 0.02799,0.44442 0.08398,0.64038 C 2.93066,3.47998 2.87467,3.8859 2.67871,3.94189 2.49674,3.94189 2.37077,3.87541 2.30078,3.74243 2.23079,3.60946 2.12581,3.41699 1.98584,3.16504 1.78988,2.78711 1.55542,2.34619 1.28247,1.84229 1.00952,1.33838 0.5861,0.771484 0.012207,0.141602 -0.393717,-0.27832 -0.617676,-0.726237 -0.659668,-1.20215 -0.70166,-1.67806 -0.652669,-2.11548 -0.512695,-2.5144 -0.372721,-2.91333 -0.187256,-3.27726 0.0437012,-3.6062 0.274658,-3.93514 0.474121,-4.19059 0.64209,-4.37256 0.740072,-4.56852 0.775065,-4.6805 0.74707,-4.7085 c 0,-0.05599 -0.034993,-0.08398 -0.10498,-0.08398 -0.05599,0 -0.090983,0.007 -0.104981,0.021 -0.013997,0.01399 -0.062988,0.06298 -0.146972,0.14697 -1.805667,1.14778 -2.834477,2.40755 -3.086427,3.779295 -0.23795,1.259766 0.13298,2.568525 1.11279,3.926265 0.40593,0.62989 0.5319,1.0988 0.37793,1.40674 C -1.37354,4.72575 -1.5555,4.84473 -1.75146,4.84473 -2.1014,4.78874 -2.33936,4.64526 -2.46533,4.41431 -2.59131,4.18335 -2.71029,3.9069 -2.82227,3.58496 -2.92025,3.27702 -3.03923,2.95858 -3.1792,2.62964 -3.31917,2.3007 -3.55013,2.00326 -3.87207,1.7373 -4.236,1.37337 -4.62793,1.10392 -5.04785,0.928955 -5.46777,0.753988 -5.78971,0.666504 -6.01367,0.666504 c -0.05599,0 -0.09798,0.013997 -0.12598,0.041992 -0.08398,0.05599 -0.12598,0.097982 -0.12598,0.125977 0,0.027994 0.05599,0.132975 0.16797,0.314937 0.65788,0.50391 1.03581,0.98682 1.13379,1.44873 0.09798,0.46192 0.10498,1.06381 0.021,1.80567 -0.05599,0.26595 -0.08399,0.57039 -0.08399,0.91333 0,0.34293 0,0.71037 0,1.10229 0,1.52572 0.47242,2.82748 1.41724,3.90527 0.94483,1.0778 2.1801,1.7287 3.7058114,1.9526 0.1399736,0.056 0.2589516,0.084 0.3569336,0.084 0.097982,0 0.223958,0 0.37793,0 0.657875,0 1.287765,-0.1294 1.889645,-0.3884 0.60189,-0.259 1.14779,-0.6334 1.6377,-1.1233"
         fill-rule="evenodd"
         vector-effect="none" />
    </g>
    <g
       id="g16"
       font-style="normal"
       font-weight="400"
       font-size="7.8px"
       font-family="'MS Shell Dlg 2'"
       stroke="none"
       fill-opacity="1"
       fill="#ec1d24" />
  </g>
</svg>

<?xml version="1.0" encoding="UTF-8" standalone="no"?>
<svg width="11.2889mm" height="11.2889mm"
 viewBox="0 0 32 32"
 xmlns="http://www.w3.org/2000/svg" xmlns:xlink="http://www.w3.org/1999/xlink"  version="1.2" baseProfile="tiny">
<title>Qt SVG Document</title>
<desc>Generated with Qt</desc>
<defs>
</defs>
<g fill="none" stroke="black" stroke-width="1" fill-rule="evenodd" stroke-linecap="square" stroke-linejoin="bevel" >

<g fill="#ec1d24" fill-opacity="1" stroke="none" transform="matrix(1,0,0,1,0,0)"
font-family="MS Shell Dlg 2" font-size="7.8" font-weight="400" font-style="normal" 
>
<path vector-effect="non-scaling-stroke" fill-rule="evenodd" d="M37.2598,16 C37.2598,27.7415 27.7415,37.2598 16,37.2598 C4.25851,37.2598 -5.25984,27.7415 -5.25984,16 C-5.25984,4.25851 4.25851,-5.25984 16,-5.25984 C27.7415,-5.25984 37.2598,4.25851 37.2598,16 "/>
</g>

<g fill="#ffffff" fill-opacity="0.94902" stroke="none" transform="matrix(1,0,0,1,16,13.1654)"
font-family="MS Shell Dlg 2" font-size="7.8" font-weight="400" font-style="normal" 
>
<path vector-effect="none" fill-rule="evenodd" d="M11.623,-1.26514 C11.2451,-0.929199 11.0002,-0.666748 10.8882,-0.477783 C10.7762,-0.288818 10.6922,-0.0193685 10.6362,0.330566 C10.5802,0.778483 10.5802,1.2264 10.6362,1.67432 C10.6922,2.12223 10.7482,2.59115 10.8042,3.08105 C10.9442,3.73893 11.0422,4.4248 11.0981,5.13867 C11.1541,5.85254 11.1121,6.5804 10.9722,7.32227 C10.7202,8.79199 10.1183,10.0553 9.1665,11.1121 C8.21468,12.1689 6.84993,13.0332 5.07227,13.7051 C4.49837,13.957 3.85449,14.2895 3.14063,14.7024 C2.42676,15.1153 1.88086,15.5387 1.50293,15.9727 C1.33496,16.1406 1.1425,16.2911 0.925537,16.4241 C0.708577,16.557 0.488118,16.6235 0.26416,16.6235 C0.012207,16.6235 -0.222249,16.557 -0.439209,16.4241 C-0.656169,16.2911 -0.848633,16.1406 -1.0166,15.9727 C-1.39453,15.5387 -1.94043,15.1153 -2.6543,14.7024 C-3.36816,14.2895 -4.01204,13.957 -4.58594,13.7051 C-8.0013,12.3753 -9.96794,10.2477 -10.4858,7.32227 C-10.6258,6.5804 -10.6678,5.85254 -10.6118,5.13867 C-10.5558,4.4248 -10.4578,3.73893 -10.3179,3.08105 C-10.2619,2.59115 -10.2024,2.12223 -10.1394,1.67432 C-10.0764,1.2264 -10.0799,0.778483 -10.1499,0.330566 C-10.1499,-0.0193685 -10.2199,-0.28182 -10.3599,-0.456787 C-10.4998,-0.631755 -10.7308,-0.87321 -11.0527,-1.18115 C-11.2767,-1.40511 -11.4307,-1.66056 -11.5146,-1.94751 C-11.5986,-2.23446 -11.6126,-2.5109 -11.5566,-2.77686 C-11.4167,-3.23877 -11.2802,-3.66919 -11.1472,-4.06812 C-11.0142,-4.46704 -10.8358,-4.86947 -10.6118,-5.27539 C-10.3319,-5.79329 -9.86296,-6.05225 -9.20508,-6.05225 L-8.72217,-6.05225 C-8.37223,-5.89827 -8.0048,-5.80029 -7.61987,-5.7583 C-7.23494,-5.71631 -6.83952,-5.69531 -6.43359,-5.69531 C-5.35579,-5.69531 -4.29899,-5.87378 -3.26318,-6.23071 C-2.22738,-6.58765 -1.42253,-7.08105 -0.848633,-7.71094 C-0.568685,-8.00488 -0.197754,-8.15186 0.26416,-8.15186 C0.670085,-8.15186 1.05501,-8.00488 1.41895,-7.71094 C1.99284,-7.08105 2.78369,-6.58765 3.7915,-6.23071 C4.79932,-5.87378 5.84212,-5.69531 6.91992,-5.69531 C7.32585,-5.69531 7.72127,-5.71631 8.1062,-5.7583 C8.49113,-5.80029 8.85856,-5.89827 9.2085,-6.05225 L9.69141,-6.05225 C10.3493,-6.05225 10.8042,-5.79329 11.0562,-5.27539 C11.2801,-4.86947 11.4796,-4.46704 11.6545,-4.06812 C11.8295,-3.66919 11.959,-3.23877 12.043,-2.77686 C12.099,-2.5109 12.085,-2.23446 12.001,-1.94751 C11.917,-1.66056 11.791,-1.43311 11.623,-1.26514 M9.46045,0.225586 C9.51644,-0.33431 9.66691,-0.76473 9.91187,-1.06567 C10.1568,-1.36662 10.4543,-1.70605 10.8042,-2.08398 C10.9442,-2.22396 10.9722,-2.37093 10.8882,-2.5249 C10.7202,-3.29476 10.4613,-4.02262 10.1113,-4.7085 C10.0273,-4.87646 9.88737,-4.96045 9.69141,-4.96045 L9.54443,-4.87646 C9.12451,-4.73649 8.70459,-4.64551 8.28467,-4.60352 C7.86475,-4.56152 7.40983,-4.54053 6.91992,-4.54053 C5.71615,-4.54053 4.53687,-4.76099 3.38208,-5.2019 C2.22729,-5.64282 1.28597,-6.22721 0.558105,-6.95508 C0.502116,-7.01107 0.404134,-7.03906 0.26416,-7.03906 C0.0961914,-7.03906 -0.0157878,-7.01107 -0.0717773,-6.95508 C-0.799642,-6.22721 -1.74097,-5.64282 -2.89575,-5.2019 C-4.05054,-4.76099 -5.22982,-4.54053 -6.43359,-4.54053 C-6.86751,-4.54053 -7.30843,-4.56152 -7.75635,-4.60352 C-8.20426,-4.64551 -8.62419,-4.73649 -9.01611,-4.87646 C-9.0721,-4.87646 -9.1141,-4.89046 -9.14209,-4.91846 C-9.18408,-4.91846 -9.20508,-4.93245 -9.20508,-4.96045 C-9.40104,-4.96045 -9.54102,-4.87646 -9.625,-4.7085 C-9.97493,-4.02262 -10.2339,-3.29476 -10.4019,-2.5249 C-10.4858,-2.37093 -10.4578,-2.22396 -10.3179,-2.08398 C-9.91195,-1.70605 -9.6075,-1.36662 -9.40454,-1.06567 C-9.20158,-0.76473 -9.0721,-0.33431 -9.01611,0.225586 C-8.96012,0.715495 -8.96712,1.2194 -9.03711,1.7373 C-9.1071,2.25521 -9.19108,2.75911 -9.28906,3.24902 C-9.37305,3.87891 -9.44303,4.51579 -9.49902,5.15967 C-9.55501,5.80355 -9.51302,6.42643 -9.37305,7.02832 C-9.13509,8.37207 -8.60319,9.48836 -7.77734,10.3772 C-6.9515,11.266 -5.76172,12.0394 -4.20801,12.6973 C-4.04004,12.7673 -3.78459,12.8792 -3.44165,13.0332 C-3.09871,13.1872 -2.72428,13.3726 -2.31836,13.5896 C-1.91243,13.8066 -1.51701,14.0585 -1.13208,14.3455 C-0.747152,14.6324 -0.421712,14.9438 -0.155762,15.2798 C-0.0437826,15.3918 0.0961914,15.4478 0.26416,15.4478 C0.404134,15.4478 0.530111,15.3918 0.64209,15.2798 C0.90804,14.9438 1.23348,14.6324 1.61841,14.3455 C2.00334,14.0585 2.39876,13.8066 2.80469,13.5896 C3.21061,13.3726 3.58504,13.1872 3.92798,13.0332 C4.27091,12.8792 4.52637,12.7673 4.69434,12.6973 C6.24805,12.0394 7.43783,11.266 8.26367,10.3772 C9.08952,9.48836 9.64941,8.37207 9.94336,7.02832 C10.0273,6.42643 10.0413,5.81055 9.98535,5.18066 C9.92936,4.55078 9.85938,3.9069 9.77539,3.24902 C9.64941,2.70313 9.55143,2.18522 9.48145,1.69531 C9.41146,1.2054 9.40446,0.715495 9.46045,0.225586 M6.91992,-3.93164 C7.40983,-3.93164 7.87874,-3.96663 8.32666,-4.03662 C8.77458,-4.10661 9.22949,-4.19059 9.69141,-4.28857 C9.83138,-3.96663 9.95736,-3.64819 10.0693,-3.33325 C10.1813,-3.01831 10.2793,-2.68587 10.3633,-2.33594 C10.0273,-2.05599 9.7159,-1.73755 9.42896,-1.38062 C9.14201,-1.02368 8.95654,-0.516276 8.87256,0.141602 C8.81657,0.6875 8.82357,1.2334 8.89355,1.7793 C8.96354,2.3252 9.04053,2.8431 9.12451,3.33301 C9.2085,3.99089 9.27848,4.61377 9.33447,5.20166 C9.39046,5.78955 9.37646,6.37044 9.29248,6.94434 C9.06852,8.14811 8.56812,9.16642 7.79126,9.99927 C7.0144,10.8321 5.89811,11.5355 4.44238,12.1094 C4.26042,12.1654 3.99797,12.2703 3.65503,12.4243 C3.31209,12.5783 2.93416,12.7708 2.52124,13.0017 C2.10832,13.2327 1.70239,13.4916 1.30347,13.7786 C0.904541,14.0655 0.558105,14.384 0.26416,14.7339 C-0.0437826,14.384 -0.400716,14.0655 -0.806641,13.7786 C-1.21257,13.4916 -1.62199,13.2327 -2.03491,13.0017 C-2.44784,12.7708 -2.82576,12.5783 -3.1687,12.4243 C-3.51164,12.2703 -3.77409,12.1654 -3.95605,12.1094 C-5.41178,11.5355 -6.51408,10.8321 -7.26294,9.99927 C-8.0118,9.16642 -8.49821,8.14811 -8.72217,6.94434 C-8.86214,6.37044 -8.90413,5.78255 -8.84814,5.18066 C-8.79215,4.57878 -8.72217,3.96289 -8.63818,3.33301 C-8.5542,2.8431 -8.47721,2.3252 -8.40723,1.7793 C-8.33724,1.2334 -8.33024,0.6875 -8.38623,0.141602 C-8.44222,-0.516276 -8.60669,-1.03068 -8.87964,-1.40161 C-9.15259,-1.77254 -9.48503,-2.14697 -9.87695,-2.5249 C-9.79297,-2.77686 -9.68799,-3.0533 -9.56201,-3.35425 C-9.43604,-3.65519 -9.28206,-3.96663 -9.1001,-4.28857 C-8.70817,-4.19059 -8.28825,-4.10661 -7.84033,-4.03662 C-7.39242,-3.96663 -6.9235,-3.93164 -6.43359,-3.93164 C-5.14583,-3.93164 -3.89307,-4.1556 -2.67529,-4.60352 C-1.45752,-5.05143 -0.477702,-5.64632 0.26416,-6.38818 C1.00602,-5.64632 1.97884,-5.05143 3.18262,-4.60352 C4.38639,-4.1556 5.63216,-3.93164 6.91992,-3.93164 M4.3584,10.8496 C4.9043,10.3037 5.31722,9.68083 5.59717,8.98096 C5.87712,8.28109 5.9891,7.57422 5.93311,6.86035 C5.93311,6.53841 5.89811,6.10799 5.82813,5.56909 C5.75814,5.03019 5.50618,4.34082 5.07227,3.50098 C4.93229,3.33301 4.81331,3.16154 4.71533,2.98657 C4.61735,2.8116 4.52637,2.65413 4.44238,2.51416 C4.20443,2.16423 4.00146,1.82479 3.8335,1.49585 C3.66553,1.16691 3.58154,0.778483 3.58154,0.330566 C3.58154,0.260579 3.57454,0.183594 3.56055,0.0996094 C3.54655,0.015625 3.47656,-0.0263672 3.35059,-0.0263672 C3.18262,-0.0263672 3.05664,0.1521 2.97266,0.509033 C2.88867,0.865967 2.81868,1.16341 2.7627,1.40137 C2.7627,1.62533 2.7627,1.85278 2.7627,2.08374 C2.7627,2.3147 2.79069,2.52816 2.84668,2.72412 C2.93066,3.47998 2.87467,3.8859 2.67871,3.94189 C2.49674,3.94189 2.37077,3.87541 2.30078,3.74243 C2.23079,3.60946 2.12581,3.41699 1.98584,3.16504 C1.78988,2.78711 1.55542,2.34619 1.28247,1.84229 C1.00952,1.33838 0.5861,0.771484 0.012207,0.141602 C-0.393717,-0.27832 -0.617676,-0.726237 -0.659668,-1.20215 C-0.70166,-1.67806 -0.652669,-2.11548 -0.512695,-2.5144 C-0.372721,-2.91333 -0.187256,-3.27726 0.0437012,-3.6062 C0.274658,-3.93514 0.474121,-4.19059 0.64209,-4.37256 C0.740072,-4.56852 0.775065,-4.6805 0.74707,-4.7085 C0.74707,-4.76449 0.712077,-4.79248 0.64209,-4.79248 C0.5861,-4.79248 0.551107,-4.78548 0.537109,-4.77148 C0.523112,-4.75749 0.474121,-4.7085 0.390137,-4.62451 C-1.41553,-3.47673 -2.44434,-2.21696 -2.69629,-0.845215 C-2.93424,0.414551 -2.56331,1.72331 -1.5835,3.08105 C-1.17757,3.71094 -1.0516,4.17985 -1.20557,4.48779 C-1.37354,4.72575 -1.5555,4.84473 -1.75146,4.84473 C-2.1014,4.78874 -2.33936,4.64526 -2.46533,4.41431 C-2.59131,4.18335 -2.71029,3.9069 -2.82227,3.58496 C-2.92025,3.27702 -3.03923,2.95858 -3.1792,2.62964 C-3.31917,2.3007 -3.55013,2.00326 -3.87207,1.7373 C-4.236,1.37337 -4.62793,1.10392 -5.04785,0.928955 C-5.46777,0.753988 -5.78971,0.666504 -6.01367,0.666504 C-6.06966,0.666504 -6.11165,0.680501 -6.13965,0.708496 C-6.22363,0.764486 -6.26563,0.806478 -6.26563,0.834473 C-6.26563,0.862467 -6.20964,0.967448 -6.09766,1.14941 C-5.43978,1.65332 -5.06185,2.13623 -4.96387,2.59814 C-4.86589,3.06006 -4.85889,3.66195 -4.94287,4.40381 C-4.99886,4.66976 -5.02686,4.9742 -5.02686,5.31714 C-5.02686,5.66007 -5.02686,6.02751 -5.02686,6.41943 C-5.02686,7.94515 -4.55444,9.24691 -3.60962,10.3247 C-2.66479,11.4025 -1.42952,12.0534 0.0961914,12.2773 C0.236165,12.3333 0.355143,12.3613 0.453125,12.3613 C0.551107,12.3613 0.677083,12.3613 0.831055,12.3613 C1.48893,12.3613 2.11882,12.2319 2.7207,11.9729 C3.32259,11.7139 3.86849,11.3395 4.3584,10.8496 "/>
</g>

<g fill="#ec1d24" fill-opacity="1" stroke="none" transform="matrix(1,0,0,1,0,0)"
font-family="MS Shell Dlg 2" font-size="7.8" font-weight="400" font-style="normal" 
>
</g>
</g>
</svg>
